X: 145
T: Mother's Reel
C: Don Messer
R: reel
B: NEFR #145
Z: 2012 John Chambers <jc:trillian.mit.edu>
M: C|
L: 1/8
K: C
g>f |\
e3 d cB cA | GA GF EG FE | DG BG dG BG | DG Bd ga gf |
e2 ed cB cA | GA GF EG FE | DG BG dG AB | cd cB c2 :|[K:G]
Bc |\
d2 d^c de fg | d2 d^c de fg | B2 Bc BA GA | Bc BA B2 Bc |
d2 d^c de fg | d2 d^c de fg | ab ag fd ef | ga gf g2 |][K:=f]
K: C
((3GAB) |:\
c2 ec gc ea | gg ec Bc dB | c2 ec gc ea | gg ec Bc dB :|
